X:1
T:Oceano
T:Oceano
T:Composer: Roberto Cacciapaglia Transcription: Dominik Smreczak
C:Roberto Cacciapaglia
%%score 1 { ( 2 4 ) | 3 }
L:1/8
Q:1/4=105
M:4/4
K:Bb
V:1 treble nm="Violin" snm="Vln."
V:2 treble nm="Piano" snm="Pno."
V:4 treble 
V:3 bass 
V:1
 z8 | z8 | z8 | z8 | z8 | z8 | z8 | z8 |[Q:1/4=110] z8 | z8 | z8 | z8 | z8 | z8 | z8 | z8 | z8 | %17
 z8 | z8 |!<(! B,8!<)! |!mf! C6 D2 | B,6 A,2 | G,8 | G8 |!f! (3z z g (3z d z (3B z G (3z D z | %25
 (3z z f (3z d z (3A z F (3z D z | (3z z e (3z B z (3G z E (3z B, z |!mf!!<(! f6!<)!!mf! b2 | %28
 c'6 d'2 | b6 a2 | g8- |!>(! g8!>)! | z8 | z8 | z8 | z8 | z8 | z8 | z8 |!<(! g8!<)! | %40
!mf! (3.g.B.d (3.G.d.B (3.g.B.d (3.G.d.B | (3.f.A.=e (3.A.d.A (3.f.A.e (3.A.d.A | %42
 (3.e.G.B (3.G.B.G (3.e.G.B (3.G.B.G | (3.d.F.c (3.F.B.F (3.d.F.c (3.F.B.F | %44
 (3.c.F.A (3.C.A.F (3.c.F.A (3.C.A.F | (3.B.D.A (3.D.G.D (3.B.D.A (3.D.G.D | %46
 (3.B.E.G (3.B,.G.E (3.B.E.G (3.B,.G.E | (3.G.B,.D (3.G,.D.B, (3.G.B,.D (3.G,.D.B, |!>(! G8!>)! | %49
 z8 | z8 | z8 |!<(! F6 B2!<)! |!mf! c6 d2 | B6 A2 | G8- |!>(! G8!>)! | D2 G2 B2 d2 | f2 =e2 d2 A2 | %59
 G2 A2 B2 e2 | d6 f2 | c2 B2 A2 c2 | B2 A2 G2 F2 | G8 | g8 |!f! (3z z g (3z d z (3B z G (3z D z | %66
 (3z z f (3z d z (3A z F (3z D z | (3z z e (3z B z (3G z E (3z B, z | %68
 (3z z d (3z B z (3F z D (3z B, z | (3z z c (3z A z (3F z C (3z A, z | %70
 (3z z B (3z G z (3D z B, (3z G, z | (3z z B (3z G z (3E z B, (3z G, z |!mf!!<(! g8!<)! | %73
!mf! (3.g.B.d (3.G.d.B (3.g.B.d (3.G.d.B | (3.f.A.=e (3.A.d.A (3.f.A.e (3.A.d.A | %75
 (3.e.G.B (3.G.B.G (3.e.G.B (3.G.B.G | (3.d.F.c (3.F.B.F (3.d.F.c (3.F.B.F | %77
 (3.c.F.A (3.C.A.F (3.c.F.A (3.C.A.F | (3.B.D.A (3.D.G.D (3.B.D.A (3.D.G.D | %79
 (3.B.E.G (3.B,.G.E (3.B.E.G (3.B,.G.E | (3.G.B,.D (3.G,.D.B, (3.G.B,.D (3.G,.D.B, | %81
 (3.g.B.d (3.G.d.B (3.g.B.d (3.G.d.B | (3.f.A.=e (3.A.d.A (3.f.A.e (3.A.d.A | %83
 (3.e.G.B (3.G.B.G (3.e.G.B (3.G.B.G | (3.d.F.c (3.F.B.F (3.d.F.c (3.F.B.F | %85
 (3.c.F.A (3.C.A.F (3.c.F.A (3.C.A.F | (3.B.D.A (3.D.G.D (3.B.D.A (3.D.G.D | %87
 (3.B.E.G (3.B,.G.E (3.B.E.G (3.B,.G.E | (3.G.B,.D (3.G,.D.B, (3.G.B,.D (3.G,.D.B, | %89
 (3.g'.b.d' (3.g.d'.b (3.g'.b.d' (3.g.d'.b | (3.f'.a.=e' (3.a.d'.a (3.f'.a.e' (3.a.d'.a | %91
 (3.e'.g.b (3.g.b.g (3.e'.g.b (3.g.b.g | (3.d'.f.c' (3.f.b.f (3.d'.f.c' (3.f.b.f | %93
 (3.c'.f.a (3.c.a.f (3.c'.f.a (3.c.a.f | (3.b.d.a (3.d.g.d (3.b.d.a (3.d.g.d | %95
 (3.b.e.g (3.B.g.e (3.b.e.g (3.B.g.e | (3.g.B.d (3.G.d.B (3.g.B.d (3.G.d.B |!>(! g8!>)! | z8 | z8 | %100
 z8 | z8 | z8 | z8 | z8 | z8 |[Q:1/4=105] z8 | z8 |[Q:1/4=100] z8[Q:1/4=25] |[Q:1/4=50] z8 |] %110
V:2
!ped! (D2 G2 B2 d2!ped-up! |!ped! f2 =e2 d2 A2!ped-up! |!ped! G2 A2 B2 e2!ped-up! | %3
!ped! d6) (f2!ped-up! |!ped! c2 B2 A2 c2!ped-up! |!ped! B2 A2 G2 F2!ped-up! | %6
!ped! G4 B2 A2!ped-up! |!ped! !fermata!G8)!ped-up! |!ped! (D2 G2 B2 d2!ped-up! | %9
!ped! f2 =e2 d2 A2!ped-up! |!ped! G2 A2 B2 e2!ped-up! |!ped! d6) (f2!ped-up! | %12
!ped! c2 B2 A2 c2!ped-up! |!ped! B2 A2 G2 F2!ped-up! |!ped! G4 B2 A2!ped-up! |!ped! G8)!ped-up! | %16
!ped! (D2 G2 B2 d2!ped-up! |!ped! f2 =e2 d2 A2!ped-up! |!ped! z6 G2!ped-up! | %19
!ped! d6) (f2!ped-up! |!ped! c2 B2 A2 c2!ped-up! |!ped! B2 A2 G2 F2!ped-up! | %22
!ped! G2 B2 e2 f2!ped-up! |!ped! g8)!ped-up! |!ped! (g2 d2 g2 d2!ped-up! | %25
!ped! f2 =e2 d2 A2!ped-up! |!ped! B2 c2 d2 e2!ped-up! |!ped! d6) (f2!ped-up! | %28
!ped! c2 B2 A2 c2!ped-up! |!ped! B2 A2 G2 F2!ped-up! |!ped! G4 B2 A2!ped-up! |!ped! G8)!ped-up! | %32
!ped! (3gBd (3GdB (3gBd (3GdB!ped-up! |!ped! (6:4:6fA=eAdA (6:4:6fAeAdA!ped-up! | %34
!ped! (3eGB (3EBG (3eGB (3EBG!ped-up! |!ped! (6:4:6dFcFBF (6:4:6dFcFBF!ped-up! | %36
!ped! (3cFA (3CAF (3cFA (3CAF!ped-up! |!ped! (3BDA (3DGD (3BDA (3DGD!ped-up! | %38
!ped! (3BEG (3B,GE (3BEG (3B,GE!ped-up! |!ped! [DG]8!ped-up! | %40
!ped! (3g'bd' (3gd'b (3g'bd' (3gd'b!ped-up! |!ped! (6:4:6f'a=e'ad'a (6:4:6f'ae'ad'a!ped-up! | %42
!ped! (3e'gb (3ebg (3e'gb (3ebg!ped-up! |!ped! (6:4:6d'fc'fbf (6:4:6d'fc'fbf!ped-up! | %44
!ped! (3c'fa (3caf (3c'fa (3caf!ped-up! |!ped! (3bda (3dgd (3bda (3dgd!ped-up! | %46
!ped! (3beg (3Bge (3beg (3Bge!ped-up! |!ped! [dg]8-!ped-up! |!ped! [dg]8!ped-up! | %49
!ped! (D2 G2 B2 d2!ped-up! |!ped! f2 =e2 d2 A2!ped-up! |!ped! G2 A2 B2 e2!ped-up! | %52
!ped! d6) (f2!ped-up! |!ped! c2 B2 A2 c2!ped-up! |!ped! B2 A2 G2 F2!ped-up! | %55
!ped! G4 B2 A2!ped-up! |!ped! G8)!ped-up! |!mp!!ped! [G,D]2 G2 !>![DB]2 G2!ped-up! | %58
!ped! !>![Af]2 =E2 !>![Fd]2 D2!ped-up! |!ped! !>![EG]2 E2 !>![Ge]2 E2!ped-up! | %60
!ped! [FBd]2 F2 B2 z2!ped-up! |!ped! [Fc]2 B2 !>![CA]2 c2!ped-up! | %62
!ped! [DB]2 A2 !>![B,G]2 F2!ped-up! |!ped! [EG]2 E2 !>![EB]2 E2!ped-up! |!ped! G,2 D2 G4!ped-up! | %65
!mf!!ped! g2 d2 g2 d2!ped-up! |!ped! f2 =e2 d2 A2!ped-up! |!ped! B2 c2 d2 e2!ped-up! | %68
!ped! d6 (f2!ped-up! |!ped! c2 B2 A2 c2!ped-up! |!ped! B2 A2 G2 F2!ped-up! | %71
!ped! G4 B2 A2!ped-up! |!ped! G8)!ped-up! |!ped! (3g'bd' (3gd'b (3g'bd' (3gd'b!ped-up! | %74
!ped! (6:4:6f'a=e'ad'a (6:4:6f'ae'ad'a!ped-up! |!ped! (3e'gb (3ebg (3e'gb (3ebg!ped-up! | %76
!ped! (6:4:6d'fc'fbf (6:4:6d'fc'fbf!ped-up! |!ped! (3c'fa (3caf (3c'fa (3caf!ped-up! | %78
!ped! (3bda (3dgd (3bda (3dgd!ped-up! |!ped! (3beg (3Bge (3beg (3Bge!ped-up! |!ped! [dg]8!ped-up! | %81
 z8 | z8 | z8 | z8 |!ped! (3c'fa (3caf (3c'fa (3caf!ped-up! | %86
!ped! (3bda (3dgd (3bda (3dgd!ped-up! |!ped! (3beg (3Bge (3beg (3Bge!ped-up! |!ped! [dg]8!ped-up! | %89
!ped! (3g'bd' (3gd'b (3g'bd' (3gd'b!ped-up! |!ped! (6:4:6f'a=e'ad'a (6:4:6f'ae'ad'a!ped-up! | %91
!ped! (3e'gb (3ebg (3e'gb (3ebg!ped-up! |!ped! (6:4:6d'fc'fbf (6:4:6d'fc'fbf!ped-up! | %93
!ped! (3c'fa (3caf (3c'fa (3caf!ped-up! |!ped! (3bda (3dgd (3bda (3dgd!ped-up! | %95
!ped! (3beg (3Bge (3beg (3Bge!ped-up! |!ped! [dg]8-!ped-up! |!ped! [dg]8!ped-up! | %98
!ped! (G2 d2 g2 a2!ped-up! |!ped! b8)!ped-up! |!ped! (G2 d2 g2 a2!ped-up! |!ped! b8)!ped-up! | %102
!ped! (G2 d2 g2 a2!ped-up! |!ped! b8)!ped-up! |!ped! (B2 _d2 _g2 _a2!ped-up! |!ped! b8)!ped-up! | %106
!ped! z2 (3DFB (3dFB (3DFB,!ped-up! |!ped! z2 (3DFB (3dFB (3DFB,!ped-up! | %108
!ped! z2 (3DFB (3dFB (3DFB,!ped-up! |!ped! !fermata!b8!ped-up! |] %110
V:3
 G,2 D,2 G,,4 | D,,2 A,,2 D,4 | E,2 B,,2 E,,4 | B,,2 F,2 B,4 | F,2 C,2 F,,4 | G,,2 D,2 G,4 | %6
 E,2 B,,2 E,,4 | G,,2 D,2 G,4 | (3G,,D,G, (3B,G,D, (3G,,D,G, (3B,G,D, | %9
 (3D,,A,,D, (3F,D,A,, (3D,,A,,D, (3F,D,A,, | (3E,,B,,E, (3G,E,B,, (3E,,B,,E, (3G,E,B,, | %11
 (3B,,F,B, (3DB,F, (3B,,F,B, (3DB,F, | (3F,,C,F, (3A,F,C, (3F,,C,F, (3A,F,C, | %13
 (3G,,D,G, (3B,G,D, (3G,,D,G, (3B,G,D, | (3E,,B,,E, (3G,E,B,, (3E,,B,,E, (3G,E,B,, | %15
 (3G,,D,G, (3B,G,D, (3G,,D,G, (3B,G,D, | (3G,,D,G, (3B,G,D, (3G,,D,G, (3B,G,D, | %17
 (3D,A,D (3FDA, (3D,A,D (3FDA, | (3E,,B,,E, (3G,E,B,, (3E,,B,,E, (3G,E,B,, | %19
 (3B,,F,B, (3DB,F, (3B,,F,B, (3DB,F, | (3F,,C,F, (3A,F,C, (3F,,C,F, (3A,F,C, | %21
 (3G,,D,G, (3B,G,D, (3G,,D,G, (3B,G,D, | (3E,,B,,E, (3G,E,B,, (3E,,B,,E, (3G,E,B,, | %23
 (3G,,D,G, (3B,G,D, (3G,,D,G, (3B,G,D, | (3G,,D,G, (3B,G,D, (3G,,D,G, (3B,G,D, | %25
 (3D,,A,,D, (3F,D,A,, (3D,,A,,D, (3F,D,A,, | (3E,,B,,E, (3G,E,B,, (3E,,B,,E, (3G,E,B,, | %27
 (3B,,F,B, (3DB,F, (3B,,F,B, (3DB,F, | (3F,,C,F, (3A,F,C, (3F,,C,F, (3A,F,C, | %29
 (3G,,D,G, (3B,G,D, (3G,,D,G, (3B,G,D, | (3E,,B,,E, (3G,E,B,, (3E,,B,,E, (3G,E,B,, | %31
 (3G,,D,G, (3B,G,D, (3G,,D,G, (3B,G,D, | (3G,,D,G, (3B,G,D, (3G,,D,G, (3B,G,D, | %33
 (3D,,A,,D, (3A,,F,A,, (3D,,A,,D, (3A,,F,A,, | (3E,,B,,E, (3G,E,B,, (3E,,B,,E, (3G,E,B,, | %35
 (3B,,F,B, (3F,DF, (3B,,F,B, (3F,DF, | (3F,,C,F, (3A,F,C, (3F,,C,F, (3A,F,C, | %37
 (3G,,D,G, (3D,B,D, (3G,,D,G, (3D,B,D, | (3E,,B,,E, (3G,E,B,, (3E,,B,,E, (3G,E,B,, | %39
 (3G,,D,G, (3B,G,D, (3G,,D,G, (3B,G,D, | (3G,,D,G, (3B,G,D, (3G,,D,G, (3B,G,D, | %41
 (3D,A,D (3A,FA, (3D,A,D (3A,FA, | (3E,B,E (3GEB, (3E,B,E (3GEB, | %43
 (3B,,F,B, (3F,DF, (3B,,F,B, (3F,DF, | (3F,,C,F, (3A,F,C, (3F,,C,F, (3A,F,C, | %45
 (3G,,D,G, (3D,B,D, (3G,,D,G, (3D,B,D, | (3E,,B,,E, (3G,E,B,, (3E,,B,,E, (3G,E,B,, | %47
 (3G,,D,G, (3B,G,D, (3G,,D,G, (3B,G,D, | G,,8 | G,2 D,2 G,,4 | D,,2 A,,2 D,4 | E,2 B,,2 E,,4 | %52
 B,,2 F,2 B,4 | F,2 C,2 F,,4 | G,,2 D,2 G,4 | E,2 B,,2 E,,4 | G,,2 D,2 G,4 | [G,,,G,,]8 | %58
 [D,,D,]8 | [E,,E,]8 | [B,,,B,,]8 | [F,,F,]8 | [G,,G,]8 | [E,,E,]8 | [G,,,G,,]8 | %65
 (3G,,D,G, (3B,G,D, (3G,,D,G, (3B,G,D, | (3D,,A,,D, (3F,D,A,, (3D,,A,,D, (3F,D,A,, | %67
 (3E,,B,,E, (3G,E,B,, (3E,,B,,E, (3G,E,B,, | (3B,,F,B, (3DB,F, (3B,,F,B, (3DB,F, | %69
 (3F,,C,F, (3A,F,C, (3F,,C,F, (3A,F,C, | (3G,,D,G, (3B,G,D, (3G,,D,G, (3B,G,D, | %71
 (3E,,B,,E, (3G,E,B,, (3E,,B,,E, (3G,E,B,, | (3G,,D,G, (3B,G,D, (3G,,D,G, (3B,G,D, | %73
 (3G,,D,G, (3B,G,D, (3G,,D,G, (3B,G,D, | (3D,A,D (3A,FA, (3D,A,D (3A,FA, | %75
 (3E,B,E (3GEB, (3E,B,E (3GEB, | (3B,,F,B, (3F,DF, (3B,,F,B, (3F,DF, | %77
 (3F,,C,F, (3A,F,C, (3F,,C,F, (3A,F,C, | (3G,,D,G, (3D,B,D, (3G,,D,G, (3D,B,D, | %79
 (3E,,B,,E, (3G,E,B,, (3E,,B,,E, (3G,E,B,, | (3G,,D,G, (3B,G,D, (3G,,D,G, (3B,G,D, | z8 | z8 | z8 | %84
 z8 | (3F,,C,F, (3A,F,C, (3F,,C,F, (3A,F,C, | (3G,,D,G, (3D,B,D, (3G,,D,G, (3D,B,D, | %87
 (3E,,B,,E, (3G,E,B,, (3E,,B,,E, (3G,E,B,, | (3G,,D,G, (3B,G,D, (3G,,D,G, (3B,G,D, | %89
 (3G,,D,G, (3B,G,D, (3G,,D,G, (3B,G,D, | (3D,A,D (3A,FA, (3D,A,D (3A,FA, | %91
 (3E,B,E (3GEB, (3E,B,E (3GEB, | (3B,,F,B, (3F,DF, (3B,,F,B, (3F,DF, | %93
 (3F,,C,F, (3A,F,C, (3F,,C,F, (3A,F,C, | (3G,,D,G, (3D,B,D, (3G,,D,G, (3D,B,D, | %95
 (3E,,B,,E, (3G,E,B,, (3E,,B,,E, (3G,E,B,, | (3G,,D,G, (3B,G,D, (3G,,D,G, (3B,G,D, | G,,8 | %98
 G,2 D,2 G,,4 | E,,2 B,,2 E,4 | G,2 D,2 G,,4 | E,,2 B,,2 E,4 | G,2 D,2 G,,4 | E,,2 B,,2 E,4 | %104
 _G,2 _D,2 _G,,4 | B,,,8 | (3B,,F,B, z2 z4 | (3B,,F,B, z2 z4 | (3B,,F,B, z2 z4 | !fermata!B,,,8 |] %110
V:4
 x8 | x8 | x8 | x8 | x8 | x8 | x8 | x8 | x8 | x8 | x8 | x8 | x8 | x8 | x8 | x8 | x8 | x8 | %18
 G2 A2 B2 e2 | F8 | F8 | D8 | G8 | B8 | B2 G2 B2 G2 | A6 F2 | G2 A2 B2 G2 | F8 | F8 | D8 | E8 | %31
 D8 | x8 | x8 | x8 | x8 | x8 | x8 | x8 | x8 | x8 | x8 | x8 | x8 | x8 | x8 | x8 | x8 | x8 | x8 | %50
 x8 | x8 | x8 | x8 | x8 | x8 | x8 | x8 | x8 | x8 | x8 | x8 | x8 | x8 | x8 | B2 G2 B2 G2 | A6 F2 | %67
 G2 A2 B2 G2 | F8 | F8 | D8 | E8 | D8 | x8 | x8 | x8 | x8 | x8 | x8 | x8 | x8 | x8 | x8 | x8 | x8 | %85
 x8 | x8 | x8 | x8 | x8 | x8 | x8 | x8 | x8 | x8 | x8 | x8 | x8 | x8 | z2 (e2 B2 A2 | G8) | %101
 z2 (e2 B2 A2 | G8) | z2 (e2 B2 A2 | B8) | x8 | x8 | x8 | x8 | x8 |] %110

